X: 45
T:Valse
M:3/4
L:1/4
S:French? - Eurojam
R:Waltz
Z:Steve Mansfield
K:G
GBd | d3 | ce>c | B2A | GBd | d3 |
|1 cBA | G2D :|2 cBc | d3|: ce/c/A/c/ | Bd/B/G/B/ | AA/c/B/A/ |
GBd | ce/c/A/c/ | Bd/B/G/B/ | AA/c/B/A/ |1 GBd :|2 G2D ||
<end>
<start>
